X:750
T:Goodnight and Joy Be Wi' Ye A'
S:Farquhar Graham, Popular Songs & Melodies
Z:Nigel Gatherer
M:4/4
L:1/8
K:G
BA | G2 G2 D3 G | E2 E2 e3 d | Bded Bded | B2 A2 A2
BA | G2 G2 D3 G | E2 E2 e3 d | Bded Bded | B2 G2 G2 ||
B2 | AGAB A2 GE | DEGA  B2 AG | A3 B cBcd | e2 A2 A3
z  | cBcd e2 dc | BABc  d2 cB | ABce dBAB | G2 E2 E2 |]
<end>
<start>
